src/assets/images/akar-icons_instagram-filled.svg

<svg width="20" height="20" viewBox="0 0 20 20" fill="none" xmlns="http://www.w3.org/2000/svg">
<g id="ant-design:instagram-filled">
<path id="Vector" d="M9.49787 7.518C7.93707 7.518 6.66333 8.79173 6.66333 10.3525C6.66333 11.9133 7.93707 13.1871 9.49787 13.1871C11.0587 13.1871 12.3324 11.9133 12.3324 10.3525C12.3324 8.79173 11.0587 7.518 9.49787 7.518ZM17.9994 10.3525C17.9994 9.17875 18.01 8.01558 17.9441 6.84392C17.8782 5.483 17.5677 4.27518 16.5725 3.28001C15.5752 2.28271 14.3695 1.97438 13.0086 1.90846C11.8348 1.84254 10.6717 1.85317 9.5 1.85317C8.32621 1.85317 7.16305 1.84254 5.99138 1.90846C4.63046 1.97438 3.42264 2.28484 2.42747 3.28001C1.43017 4.27731 1.12184 5.483 1.05592 6.84392C0.99 8.01771 1.00063 9.18087 1.00063 10.3525C1.00063 11.5242 0.99 12.6895 1.05592 13.8612C1.12184 15.2221 1.4323 16.4299 2.42747 17.4251C3.42477 18.4224 4.63046 18.7307 5.99138 18.7966C7.16517 18.8625 8.32833 18.8519 9.5 18.8519C10.6738 18.8519 11.837 18.8625 13.0086 18.7966C14.3695 18.7307 15.5774 18.4202 16.5725 17.4251C17.5698 16.4278 17.8782 15.2221 17.9441 13.8612C18.0121 12.6895 17.9994 11.5263 17.9994 10.3525ZM9.49787 14.7139C7.08437 14.7139 5.13655 12.766 5.13655 10.3525C5.13655 7.93903 7.08437 5.99122 9.49787 5.99122C11.9114 5.99122 13.8592 7.93903 13.8592 10.3525C13.8592 12.766 11.9114 14.7139 9.49787 14.7139ZM14.0378 6.83116C13.4743 6.83116 13.0193 6.3761 13.0193 5.8126C13.0193 5.24909 13.4743 4.79403 14.0378 4.79403C14.6013 4.79403 15.0564 5.24909 15.0564 5.8126C15.0565 5.9464 15.0303 6.07893 14.9792 6.20258C14.9281 6.32624 14.853 6.43859 14.7584 6.5332C14.6638 6.62782 14.5515 6.70284 14.4278 6.75397C14.3041 6.8051 14.1716 6.83133 14.0378 6.83116Z" fill="white"/>
</g>
</svg>

<svg xmlns="http://www.w3.org/2000/svg" width="20" height="20" fill="none"><path fill="#fff" d="M9.498 7.518a2.84 2.84 0 0 0-2.835 2.834 2.84 2.84 0 0 0 2.835 2.835 2.84 2.84 0 0 0 2.834-2.835 2.84 2.84 0 0 0-2.834-2.834Zm8.501 2.834c0-1.173.011-2.336-.055-3.508-.066-1.361-.376-2.569-1.371-3.564-.998-.997-2.204-1.306-3.564-1.372-1.174-.065-2.337-.055-3.509-.055-1.174 0-2.337-.01-3.509.055-1.36.066-2.568.377-3.564 1.372-.997.997-1.305 2.203-1.371 3.564C.99 8.018 1 9.18 1 10.352c0 1.172-.011 2.338.055 3.51.066 1.36.376 2.568 1.371 3.563.998.997 2.203 1.306 3.564 1.372 1.174.066 2.337.055 3.509.055 1.174 0 2.337.01 3.509-.055 1.36-.066 2.568-.377 3.564-1.372.997-.997 1.305-2.203 1.371-3.564.068-1.171.055-2.335.055-3.509Zm-8.501 4.362a4.355 4.355 0 0 1-4.361-4.362 4.355 4.355 0 0 1 4.36-4.36 4.355 4.355 0 0 1 4.362 4.36 4.355 4.355 0 0 1-4.361 4.362Zm4.54-7.883a1.017 1.017 0 0 1-1.019-1.018c0-.564.455-1.019 1.019-1.019a1.017 1.017 0 1 1 0 2.037Z"/></svg>
